X:184 
T:Rockfield Cottages (reel), The 
S:Grier MS
F:file ID: cre.4/184rockf_c
B:CRE4.102 (TeachÃÂÃÂÃÂÃÂ­nÃÂÃÂÃÂÃÂ­ Ghort na gCloch)
Q:180
L:1/8
M:4/4
R:reel
K:G
G3c BAGB|dgfa gedc|B2Ac BGAF|DFAF GFED|
"5"G3c BAGB|dgfa gedc|B2Ac BGAF|DFAF G4:|
"9"g2af gdBd|egfa gfed|ecAc dBGB|cBAG FAFD|
"13"g2af gdBd|egfa g3d|Bdef gfag|bgef g2gf|
"17"(3efg dg Bgdg|egfa gfed|ecAc dBGB|cBAG FAFD|
"21"G3c BAGB|dgfa gedc|B2Ac BGAF|DFAF G4 |]

%%%

